X:2
T:Russell's Paradox
C:Colin Cotter
M:6/8
K:G
E2 E B2 B|cBA BGE|D2 D d2 c|B2 B BAG|E2 E B2 B|cBA BGE|D2 D d2 c|
BAG z3 :||:D2 D d2 c|Bee Bee|D2 D d2 c|Bcd gdB|D2 d d2 c|Bee Bee|gfe fed|edB z3 :|
